icons/Weather/rainbow-fill.svg

<svg viewBox="0 0 24 24" xmlns="http://www.w3.org/2000/svg"><path d="M12 4C18.0751 4 23 8.92487 23 15V20H20V15C20 10.6651 16.5522 7.13546 12.2492 7.00381L12 7C7.66509 7 4.13546 10.4478 4.00381 14.7508L4 15V20H1V15C1 8.92487 5.92487 4 12 4ZM12 8C15.866 8 19 11.134 19 15V20H16V15C16 12.8578 14.316 11.1089 12.1996 11.0049L12 11C9.8578 11 8.10892 12.684 8.0049 14.8004L8 15V20H5V15C5 11.134 8.13401 8 12 8ZM12 12C13.6569 12 15 13.3431 15 15V20H9V15C9 13.3431 10.3431 12 12 12Z"/></svg>

<svg xmlns="http://www.w3.org/2000/svg" viewBox="0 0 24 24">
    <g>
        <path fill="none" d="M0 0h24v24H0z"/>
        <path d="M12 4c6.075 0 11 4.925 11 11v5h-3v-5a8 8 0 0 0-7.75-7.996L12 7a8 8 0 0 0-7.996 7.75L4 15v5H1v-5C1 8.925 5.925 4 12 4zm0 4a7 7 0 0 1 7 7v5h-3v-5a4 4 0 0 0-3.8-3.995L12 11a4 4 0 0 0-3.995 3.8L8 15v5H5v-5a7 7 0 0 1 7-7zm0 4a3 3 0 0 1 3 3v5H9v-5a3 3 0 0 1 3-3z"/>
    </g>
</svg>
